X: 10471
T: THE DUNCE DINGS A' -- Reel
R: reel
B: K\"ohler's Violin Repository, v.1, 1885 p.47 #1
F: http://www.archive.org/details/klersviolinrepos01edin
Z: 2011 John Chambers <jc:trillian.mit.edu>
M: C|
L: 1/8
K: A
|: vceeg aecA | ceeg a2(ae) | ceeg aecA | B=GGB g2(gB) :|
|: v(cA)(eA) fAeA | cAeA a2(ae) | (cA)(eA) fAeA | B=GGB g2(gB) "_Fine":|

%%sep 2 1 500

